X:1
T:The School Of Velocity
T:Op. 299, No. 10
T:Carl Czerny
%%score { ( 1 3 ) | ( 2 4 ) }
L:1/8
Q:1/4=60
M:6/8
K:F
V:1 treble nm="Piano"
V:3 treble 
V:2 bass 
V:4 bass 
V:1
"F""^10." z"E+" z"F" z"F/C" z"F/D" z"F/E" z | %1
"F""E+"{/c} (c'2"F" !4!a/f/"F/C" !1!c)"F"!4!c"F#dim"!3!c | %2
"C7/G" (!2!c7/4"F#dim"d/4"C7/G"c)"F/C""C__" z2"C__" z | %3
"F#dim""C7/G"{/c} (c'2"C7/G" !3!g/e/ c)"C7" (!3!c/>d/B/>c/) | %4
"F" A"Gm7" z"F/A" f"Bb""F/A"{/f} (f'2"G#dim" e'/d'/ | %5
"F/A" !wedge!c') !wedge!a !wedge!!4!c'"C7/G"{/c'} !wedge!b !wedge!g !wedge!c' | %6
"F" !wedge!!2!a"Gm7" !wedge!f"F/A" !wedge!f"Bb""F/A"{/f} (f'2"G#dim" !4!e'/d'/ | %7
"F/A" !wedge!c') !wedge!a !wedge!!4!c'"C7/G"{/c'} !wedge!b !wedge!g !wedge!c' | %8
"F" a"Edim" !4!b>!3!a"Dm/F" !2!a"A7/E" [ee']"Dm" [ff'] | %9
"C/E" !2!g"Ddim" !4!_a>"C/E"!3!g !2!g"G/D" [dd']"C" [ee'] | %10
"C/E""D#dim" ([gg']2"C/E" !4![ff']/!5![ee']/)"Dm/F" !4![dd']"F#dim"([_e_e']!5![cc']) | %11
"C/G""G+" (!5,4![Gg]2"C/G" !5![Aa]/!4![Gg]/)"G7" [Gg]"C/G"[Gg]"G"[Gg] |"C" !2!c2 z"F/C" z cf || %13
"C7" (!3!f2 e)"F/C" (Tf/>e/ fa) |"C" [cc']2 (!2!c"C/F" Ac!4!f) |"C7" (!3!f2 e)"F" (T!2!f/>e/ fa) | %16
"C""Dm7" [cc']2"C/E" [cc']/>[cc']/"Dm7""C/E" [cc']2"F" [cc']/>[cc']/ | %17
"C/E""F" [cc']2"C7/G" [cc']/>[cc']/"F#dim" [cc']"C7/G"[cc']"F"[cc'] |"C7/G" [cc']6- | %19
"C" [cc']"C7"(!4![Bb]"F/C"!5![Aa]"C7" !4![Gg]"F/C"!5![Ff]"C7"!4![Ee]) | %20
"F""Bb/F" f3-"F#dim" (f3/2!4!e/4d/4c) | %21
"F" (!5![Aa]"C7"!4,5![Gg]"F/C"!4,5![Ff])"C7" (!4,5![Ee]"F/C"!4![Dd]"C7"!5,4![Ee]) | %22
"F""Bb/F" f3-"F#dim" (f3/2e/4d/4c) | %23
"F/C" (!5![Aa]"C7"!4,5![Gg]"F/C"!4,5![Ff])"C7" (!4,5![Ee]"F/C"!4![Dd]"C7"!5,4![Ee]) | %24
"F" f!3!cc"C7" !3!c>dc |"F" fcc"C7" c>dc |"F" f/c/"C7" c2"F" f/c/"C7" c2 | %27
"F" [FA]"C7" ([GBc]"F"[FA])"C7" ([GBc]"F"[FA])"C7" [GBc] |"F" [FA]6 | [fac'f'] z z4 |] %30
V:2
"^Updated Sep 15, 2014" !4!F,/4!1!C/4!2!A,/4!1!C/4 !5!E,/4!1!C/4!3!^G,/4!1!C/4 !4!F,/4!1!C/4!2!A,/4!1!C/4 !5!C,/4!1!C/4!2!A,/4!1!C/4 !5!D,/4!1!C/4!2!A,/4!1!C/4 !5!E,/4!1!C/4!2!A,/4!1!C/4 | %1
 !4!F,/4C/4!2!A,/4C/4 !5!E,/4C/4!3!^G,/4C/4 !4!F,/4C/4!2!A,/4C/4 C,/4C/4A,/4C/4 !4!F,/4C/4A,/4C/4 !3!^F,/4C/4A,/4C/4 | %2
 !4!=G,/4C/4B,/4C/4 !5!^F,/4C/4!3!A,/4C/4 !4!G,/4C/4B,/4C/4 !5!C,/4C/4B,/4C/4 !5!E,/4C/4B,/4C/4 !5!^F,/4C/4B,/4C/4 | %3
 !4!G,/4C/4B,/4C/4 !5!^F,/4C/4A,/4C/4 !4!G,/4C/4B,/4C/4 !5!E,/4C/4!3!G,/4C/4 !5!C,/4C/4!4!E,/4C/4 !5!E,/4C/4G,/4C/4 | %4
 !5!F,/4F/4!4!A,/4F/4 !5!G,/4F/4!3!B,/4F/4 !4!A,/4F/4C/4F/4 !3!B,/4F/4D/4F/4 !4!A,/4F/4C/4F/4 !5!^G,/4F/4!3!=B,/4F/4 | %5
 !4!A,/4F/4C/4F/4 !5!F,/4F/4C/4F/4 !4!A,/4F/4C/4F/4 !5!=G,/4E/4C/4E/4 !5!C,/4E/4C/4E/4 !5!C,/4E/4C/4E/4 | %6
 F,/4F/4!4!A,/4F/4 !5!G,/4F/4!3!B,/4F/4 !4!A,/4F/4C/4F/4 !3!B,/4F/4D/4F/4 !4!A,/4F/4C/4F/4 !5!^G,/4F/4=B,/4F/4 | %7
 !4!A,/4F/4C/4F/4 F,/4F/4C/4F/4 A,/4F/4C/4F/4 !5!=G,/4E/4C/4E/4 C,/4E/4C/4E/4 C,/4E/4C/4E/4 | %8
 F,/4F/4C/4F/4 !5!E,/4!1!^C/4!3!G,/4C/4 E,/4C/4G,/4C/4 !4!F,/4D/4!2!A,/4D/4 !5!E,/4!1!C/4!2!A,/4C/4 D,/4D/4A,/4D/4 | %9
 !5!E,/4=C/4!2!G,/4C/4 !5!D,/4=B,/4!3!F,/4B,/4 D,/4B,/4F,/4B,/4 !4!E,/4C/4G,/4C/4 !5!D,/4B,/4G,/4B,/4 !5!C,/4C/4G,/4C/4 | %10
 !4!E,/4C/4!2!G,/4C/4 !5!^D,/4C/4G,/4C/4 !4!E,/4C/4!2!G,/4C/4 !5!F,/4=D/4!3!A,/4D/4 !5!^F,/4!2!C/4!3!A,/4C/4 !5!F,/4!1!_E/4!3!A,/4E/4 | %11
 !5!G,/4!1!=E/4!2!C/4!1!E/4 G,/4!1!^D/4!3!=B,/4D/4 G,/4E/4C/4E/4 G,/4=F/4=D/4F/4 G,/4E/4C/4E/4 !5!G,/4!1!D/4!2!B,/4F/4 | %12
 !5!C,/4C/4!4!E,/4C/4 !2!G,/4C/4E,/4C/4 C,/4C/4E,/4C/4 C,/4C/4!3!F,/4C/4 A,/4C/4F,/4C/4 C,/4C/4F,/4C/4 || %13
 C,/4C/4!3!G,/4C/4 _B,/4C/4G,/4C/4 C,/4C/4G,/4C/4 C,/4C/4!2!A,/4C/4 C,/4C/4A,/4C/4 C,/4C/4!3!F,/4C/4 | %14
 C,/4C/4E,/4C/4 G,/4C/4E,/4C/4 C,/4C/4E,/4C/4 C,/4C/4F,/4C/4 A,/4C/4F,/4C/4 C,/4C/4F,/4C/4 | %15
 C,/4C/4G,/4C/4 B,/4C/4G,/4C/4 C,/4C/4G,/4C/4 C,/4C/4A,/4C/4 C,/4C/4A,/4C/4 C,/4C/4A,/4C/4 | %16
 !5!C,/4C/4!4!E,/4C/4 !5!D,/4C/4!3!F,/4C/4 !4!E,/4C/4!2!G,/4C/4 !5!D,/4C/4!3!F,/4C/4 !4!E,/4C/4!2!G,/4C/4 !3!F,/4C/4!2!A,/4C/4 | %17
 !5!E,/4C/4!3!G,/4C/4 !4!F,/4C/4!2!A,/4C/4 !3!G,/4C/4!2!B,/4C/4 !4!^F,/4C/4A,/4C/4 !3!G,/4C/4B,/4C/4 !4!F,/4C/4A,/4C/4 | %18
 !3!G,/4C/4B,/4C/4"F#dim" !4!^F,/4C/4A,/4C/4"Fm" !3!=F,/4C/4!2!_A,/4C/4"C/E" !4!E,/4C/4!3!G,/4C/4"D#dim" !3!^D,/4C/4!2!^F,/4C/4"Dm7" !4!=D,/4C/4!2!=F,/4C/4 | %19
 C,/4C/4!4!E,/4C/4 C,/4C/4E,/4C/4 C,/4C/4!3!F,/4C/4 C,/4C/4!2!B,/4C/4 C,/4C/4!2!=A,/4C/4 C,/4!1!B,/4!2!G,/4B,/4 | %20
 F,,/4F,/4!4!A,,/4F,/4 !2!C,/4F,/4!4!A,,/4F,/4 !2!D,/4F,/4!3!B,,/4F,/4 F,,/4F,/4!4!^G,,/4F,/4 !2!=B,,/4F,/4!4!G,,/4F,/4 !2!C,/4F,/4!4!A,,/4F,/4 | %21
 C,/4C/4!3!F,/4C/4 C,/4C/4_B,/4C/4 C,/4C/4A,/4C/4 C,/4!1!B,/4!2!=G,/4B,/4 C,/4!1!A,/4!3!F,/4A,/4 C,/4!1!B,/4!2!G,/4B,/4 | %22
 F,,/4F,/4!4!A,,/4F,/4 !2!C,/4F,/4!4!A,,/4F,/4 !2!D,/4F,/4!3!B,,/4F,/4 F,,/4F,/4!4!^G,,/4F,/4 !2!=B,,/4F,/4!4!G,,/4F,/4 !2!C,/4F,/4!4!A,,/4F,/4 | %23
 C,/4C/4!3!F,/4C/4 C,/4C/4_B,/4C/4 C,/4C/4A,/4C/4 C,/4!1!B,/4!2!=G,/4B,/4 C,/4!1!A,/4!3!F,/4A,/4 C,/4!1!B,/4!2!G,/4B,/4 | %24
 !3!F,/4A,/4C/4C,/4 F,/4A,/4C/4C,/4 F,/4A,/4C/4C,/4 !4!E,/4G,/4C/4C,/4 E,/4G,/4C/4C,/4 E,/4G,/4C/4C,/4 | %25
 !3!F,/4A,/4C/4C,/4 F,/4A,/4C/4C,/4 F,/4A,/4C/4C,/4 !4!E,/4G,/4C/4C,/4 E,/4G,/4C/4C,/4 E,/4G,/4C/4C,/4 | %26
 !3!F,/4A,/4C/4C,/4 !4!E,/4G,/4C/4C,/4 E,/4G,/4C/4C,/4 !3!F,/4A,/4C/4C,/4 !4!E,/4G,/4C/4C,/4 E,/4G,/4C/4C,/4 | %27
 !3!F,/4A,/4C/4C,/4 !4!E,/4G,/4C/4C,/4 !3!F,/4A,/4C/4C,/4 !4!E,/4G,/4C/4C,/4 !3!F,/4A,/4C/4C,/4 !4!E,/4G,/4C/4C,/4 | %28
 !3!F,/4!1!C/4!2!A,/4!3!F,/4 !5!C,/4!1!A,/4!2!F,/4!4!C,/4 !5!A,,/4!1!F,/4C,/4!4!A,,/4 F,,/4!1!C,/4A,,/4!3!F,,/4 C,,/4!1!A,,/4F,,/4!4!C,,/4 A,,,/4!1!F,,/4!2!C,,/4A,,,/4 | %29
 F,,, z z4 |] %30
V:3
 x6 | x6 | x6 | x6 | x3 f3 | x6 | x3 f3 | x6 | x6 | x6 | x6 | x6 | x6 || x6 | x6 | x6 | x6 | x6 | %18
 x6 | x6 | F3- F3 | x6 | F3- F3 | x6 | [FA]3 !1!!2![GBx]3 | [FA]3 [GBx]3 | [FA] [GB]2 [FA] [GB]2 | %27
 x6 | x6 | x6 |] %30
V:4
 x6 | x6 | x6 | x6 | x6 | x6 | x6 | x6 | x6 | x6 | x6 | x6 | x6 || x6 | x6 | x6 | x6 | x6 | x6 | %19
 x6 | F,,3 F,,3 | x6 | F,,3 F,,3 | x6 | x6 | x6 | x6 | x6 | x6 | x6 |] %30

